X:44
T:Ten Penny Bit
S:Bernie Waugh
R:Jig
M:6/8
L:1/8
K:A Dor
g/f/|\
"Am"eAA eAA|"G"~BAB GBd|"Am"eAA eAA|"D"def gfg|
"Am"eAA eAA|"G"~BAB GBd|"Em"ede gdB|"Am"BAG A2:|
|:e|\
e"F"aa aga|"Dm"bge "Em"dBG|"F"Aaa aga|"Dm"bge "Em"g2d|
"F"eaa aga|"G"bge dBG|"Em"def gdB|"Am"~BAG A2:|

